X: 351	% 98
T: Arkansas Jitters
S: Viola Ruth "Pioneer Western Folk Tunes" 1948 p.35 #1
R: march, reel
Z: 2019 John Chambers <jc:trillian.mit.edu>
M: 2/4
L: 1/16
K: G
V: 1 name="98"
"^Quadrille"G2 |\
B2Bd B2Bd | B2G2A2B2 | cBcd c2B2 | A6 (3(ABc) |\
d2ag f2ag | f2d2e2f2 | gfga g2e2 | dedc BAGA |\
B2Bd B2Bd |
B2G2A2B2 | cBcd c2B2 | A6 (3(ABc) |\
d2ag f2ag | f2d2e2f2 | gfga gfef | [g6B6] (ga) ||\
b2a2 gfef | a2g2 f2fg |
a2g2 fede | f2e2 dBGA |\
B2Bd B2Bd | B2G2A2B2 | cBcd c2B2 | A6 (3(ABc) |\
d2ag f2ag | f2d2e2f2 | gfga gfef | [g4-B4-] [g2B2] |]
